X: 898
T: The boys of Bluehill
C: anon.
O: Ireland
B: Francis O'Neill: "The Dance Music of Ireland" (1907) no. 898
R: Hornpipe
Z: Transcribed by Frank Nordberg - http://www.musicaviva.com
F: http://www.musicaviva.com/abc/tunes/ireland/oneill-1001/oneill-1001-089
8.abc
M: 2/4
L: 1/16
K: D
(FG)|BAFA D2(FA)|BABd e2(de)|faaf egfe|dfed B2(dB)|BAFA D2(FA)|BABd e2(de
)|faaf egfe|d2dd d2:|
|:(fg)|afdf a2(gf)|gfga b2(ag)|faaf egfe|dfed B2(dB)|BAFA D2(FA)|BABd e2(
de)|faaf egfe|d2ddd2:|
W:
W:
W: From Musica Viva - http://www.musicaviva.com
W: the Internet center for free sheet music downloads.


